X: 83
T:Sherriff Muir. WI.083
T:Kafoozalum,aka. WI.083
M:C|
Q:160
C:"2nd set from Gow's Collection".Kafoozalum,aka
S:Wm Irwin, Folio MS, c1850. AGG's Transcription
R:Schottisch
O:England
A:Lake District
Z:vmp.Chris Partington.2005
K:A
"Slow"{A}e2-ed c>de2|B>cd>c B>cd2|{Ac}e2-e d c>de2|\
A>Bc>A B2A2:|!
|:cA ((3ABA) cAc2|dB ((3BcB) dBd2|cA ((3ABA) cAc2|\
A>Bc>A B2A2:|]
